X:1154
T: Esik az eső, hull a villám rakásra
Q:1/4=122
M:4/4
L:1/4
K:F
d G d/d/ c | B/d/c/B/ | A<G G z |
d<d g<g | f/a/g/^f/ | g<d d z |
d d g g | f/a/g/^f/ | g<d c z |
d G d/d/ c | B/d/c/B/ | A<G G z |

